X:62
T: Die Bluthochzeit
N: Q0046C
O: Mitteleuropa, Deutschland (BRD) , Rheinprovinz, Grafschaft Berg
N: Variante des Nachsatzes von Q0046A. Verzierung (Vorschlag) in der
N: ersten Zeile.
R: Ballade, Entfuehrung, Mord, Vergeltung
M: 2/4
L: 1/8
K: G
A | d2de | =f2ed | e=fed | c3
d | d2A_B | c2c_B | A2_BA | G2z

@@@ Tune index: 798
